icon/conversation.svg

<svg xmlns="http://www.w3.org/2000/svg" xmlns:xlink="http://www.w3.org/1999/xlink" width="500" zoomAndPan="magnify" viewBox="0 0 375 374.999991" height="500" preserveAspectRatio="xMidYMid meet" version="1.0"><defs><clipPath id="44092ae95c"><path d="M 28.257812 33 L 347 33 L 347 341.890625 L 28.257812 341.890625 Z M 28.257812 33 " clip-rule="nonzero"/></clipPath></defs><g clip-path="url(#44092ae95c)"><path fill="#ffffff" d="M 247.230469 33.515625 C 199.15625 33.515625 158.535156 64.460938 149.523438 106.527344 C 141.777344 104.695312 133.925781 103.773438 125.96875 103.761719 C 72.066406 103.820312 28.257812 145.855469 28.257812 197.503906 C 28.277344 202.640625 28.722656 207.738281 29.597656 212.796875 C 30.472656 217.859375 31.765625 222.8125 33.472656 227.65625 C 35.179688 232.5 37.28125 237.167969 39.777344 241.65625 C 42.269531 246.148438 45.121094 250.398438 48.328125 254.410156 L 30.753906 341.539062 L 106.378906 289.320312 C 112.828125 290.558594 119.339844 291.179688 125.90625 291.183594 C 174.371094 291.183594 215.441406 256.753906 222.59375 211.5625 C 229.910156 213.238281 237.320312 214.15625 244.824219 214.320312 C 252.324219 214.480469 259.769531 213.882812 267.148438 212.523438 L 344.246094 262.792969 L 326.21875 178.84375 C 329.472656 175.050781 332.367188 171.003906 334.90625 166.703125 C 337.449219 162.402344 339.59375 157.910156 341.34375 153.234375 C 343.09375 148.554688 344.421875 143.757812 345.328125 138.84375 C 346.234375 133.933594 346.707031 128.976562 346.738281 123.980469 C 346.738281 74.136719 302.121094 33.515625 247.230469 33.515625 Z M 125.96875 279.164062 C 119.382812 279.160156 112.871094 278.460938 106.4375 277.0625 L 103.882812 276.492188 L 48.359375 314.859375 L 61.308594 251.105469 L 59.417969 248.878906 C 56.355469 245.339844 53.628906 241.558594 51.242188 237.535156 C 48.859375 233.507812 46.847656 229.300781 45.214844 224.917969 C 43.582031 220.53125 42.347656 216.035156 41.519531 211.429688 C 40.691406 206.824219 40.277344 202.183594 40.277344 197.503906 C 40.277344 152.433594 78.734375 115.839844 126.027344 115.839844 C 133.425781 115.835938 140.71875 116.726562 147.898438 118.511719 C 147.78125 120.316406 147.71875 122.117188 147.71875 123.921875 C 147.71875 126.324219 147.71875 128.699219 148.019531 131.042969 C 148.019531 131.824219 148.230469 132.605469 148.320312 133.386719 C 148.5 134.949219 148.679688 136.390625 148.953125 138.042969 C 148.953125 138.945312 149.34375 139.847656 149.523438 140.746094 C 149.792969 142.128906 150.0625 143.511719 150.425781 144.863281 C 150.785156 146.214844 150.996094 146.757812 151.265625 147.867188 C 151.535156 148.980469 152.015625 150.421875 152.46875 151.683594 C 152.917969 152.945312 153.21875 153.605469 153.578125 154.6875 C 153.9375 155.769531 154.539062 157.121094 155.050781 158.324219 C 155.5625 159.527344 155.953125 160.1875 156.433594 161.117188 C 156.914062 162.050781 157.542969 163.429688 158.175781 164.542969 C 158.808594 165.65625 159.226562 166.375 159.769531 167.308594 C 160.308594 168.238281 161.058594 169.46875 161.78125 170.523438 C 162.503906 171.574219 162.984375 172.324219 163.613281 173.195312 C 164.246094 174.066406 165.085938 175.238281 165.867188 176.199219 C 166.648438 177.160156 167.21875 177.882812 167.941406 178.722656 C 168.660156 179.566406 169.5625 180.675781 170.402344 181.730469 C 171.246094 182.78125 171.90625 183.351562 172.6875 184.132812 L 175.390625 186.835938 L 177.886719 189.089844 C 178.847656 189.929688 179.808594 190.773438 180.890625 191.582031 L 183.59375 193.6875 C 184.617188 194.46875 185.667969 195.21875 186.597656 195.941406 C 187.53125 196.660156 188.492188 197.261719 189.601562 197.894531 L 192.90625 199.9375 L 195.914062 201.679688 L 199.429688 203.511719 L 202.523438 204.773438 C 203.753906 205.316406 204.984375 205.855469 206.25 206.335938 C 207.511719 206.816406 208.472656 207.265625 209.613281 207.6875 L 210.996094 208.230469 C 205.527344 248.339844 169.023438 279.164062 125.96875 279.164062 Z M 326.460938 236.832031 L 269.644531 199.757812 L 267.210938 200.265625 C 259.238281 201.929688 251.183594 202.589844 243.046875 202.25 C 234.914062 201.90625 226.941406 200.578125 219.136719 198.253906 C 183.503906 187.496094 159.558594 157.664062 159.558594 123.980469 C 159.570312 120.964844 159.757812 117.960938 160.128906 114.96875 C 165.265625 75.488281 202.644531 45.863281 247.109375 45.863281 C 295.664062 45.535156 334.722656 80.746094 334.722656 123.980469 C 334.710938 128.5 334.277344 132.980469 333.429688 137.421875 C 332.578125 141.859375 331.324219 146.179688 329.667969 150.386719 C 328.011719 154.589844 325.976562 158.605469 323.570312 162.429688 C 321.160156 166.253906 318.417969 169.824219 315.34375 173.136719 L 313.269531 175.417969 Z M 326.460938 236.832031 " fill-opacity="1" fill-rule="nonzero"/></g><path fill="#ffffff" d="M 195.433594 87.417969 L 299 87.417969 L 299 99.433594 L 195.433594 99.433594 Z M 195.433594 87.417969 " fill-opacity="1" fill-rule="nonzero"/><path fill="#ffffff" d="M 195.433594 111.003906 L 299 111.003906 L 299 123.019531 L 195.433594 123.019531 Z M 195.433594 111.003906 " fill-opacity="1" fill-rule="nonzero"/><path fill="#ffffff" d="M 195.433594 134.585938 L 299 134.585938 L 299 146.605469 L 195.433594 146.605469 Z M 195.433594 134.585938 " fill-opacity="1" fill-rule="nonzero"/><path fill="#ffffff" d="M 195.433594 158.171875 L 299 158.171875 L 299 170.191406 L 195.433594 170.191406 Z M 195.433594 158.171875 " fill-opacity="1" fill-rule="nonzero"/></svg>

<svg width="500" height="500" viewBox="0 0 375 375" xmlns="http://www.w3.org/2000/svg"><defs><clipPath><path d="M28.258 33H347v308.89H28.258Zm0 0"/></clipPath></defs><g clip-path="url(#a)"><path d="M247.23 33.516c-48.074 0-88.695 30.945-97.707 73.011a102.7 102.7 0 0 0-23.554-2.765c-53.903.058-97.711 42.093-97.711 93.742a91.6 91.6 0 0 0 5.215 30.152 91 91 0 0 0 6.304 14 91.4 91.4 0 0 0 8.551 12.754l-17.574 87.13 75.625-52.22q9.676 1.858 19.527 1.864c48.465 0 89.535-34.43 96.688-79.622a110.1 110.1 0 0 0 44.554.961l77.098 50.27-18.027-83.95a85 85 0 0 0 8.687-12.14 85.036 85.036 0 0 0 10.422-27.86 84.7 84.7 0 0 0 1.41-14.863c0-49.843-44.617-90.464-99.508-90.464M125.97 279.164a92 92 0 0 1-19.531-2.101l-2.555-.57-55.524 38.366 12.95-63.754-1.891-2.226a78.5 78.5 0 0 1-8.176-11.344 78.7 78.7 0 0 1-6.027-12.617 78.522 78.522 0 0 1-4.937-27.414c0-45.07 38.456-81.664 85.75-81.664a90 90 0 0 1 21.87 2.672 83 83 0 0 0-.18 5.41c0 2.402 0 4.777.302 7.121 0 .781.21 1.562.3 2.344.18 1.562.36 3.004.633 4.656 0 .902.39 1.805.57 2.703.27 1.383.54 2.766.903 4.117.36 1.352.57 1.895.84 3.004.27 1.113.75 2.555 1.203 3.817.449 1.261.75 1.921 1.11 3.004.358 1.082.96 2.433 1.472 3.636s.902 1.863 1.383 2.793c.48.934 1.109 2.313 1.742 3.426s1.05 1.832 1.594 2.766a54 54 0 0 0 2.011 3.214c.723 1.051 1.203 1.801 1.832 2.672.633.871 1.473 2.043 2.254 3.004s1.352 1.684 2.074 2.524c.72.843 1.621 1.953 2.461 3.007.844 1.051 1.504 1.622 2.286 2.403l2.703 2.703 2.496 2.254c.96.84 1.922 1.683 3.004 2.492l2.703 2.106c1.023.78 2.074 1.53 3.004 2.253.933.72 1.894 1.32 3.004 1.954l3.304 2.042 3.008 1.743 3.516 1.832 3.093 1.261c1.23.543 2.461 1.082 3.727 1.563 1.262.48 2.223.93 3.363 1.351l1.383.543c-5.469 40.11-41.973 70.934-85.027 70.934m200.492-42.332-56.816-37.074-2.434.508a97.8 97.8 0 0 1-24.164 1.984 98 98 0 0 1-23.91-3.996c-35.633-10.758-59.578-40.59-59.578-74.274q.015-4.523.57-9.011c5.137-39.48 42.516-69.106 86.98-69.106 48.555-.328 87.614 34.883 87.614 78.117a72.6 72.6 0 0 1-5.055 26.407 72.4 72.4 0 0 1-6.098 12.043 72.7 72.7 0 0 1-8.226 10.707l-2.074 2.281Zm0 0"/></g><path d="M195.434 87.418H299v12.016H195.434ZM195.434 111.004H299v12.016H195.434ZM195.434 134.586H299v12.02H195.434ZM195.434 158.172H299v12.02H195.434Zm0 0"/></svg>
